X: 68
T: the Mountain Road
R: reel
Z: 2012 John Chambers <jc@trillian.mit.edu>
B: "100 Essential Irish Session Tunes" 1995 Dave Mallinson, ed.
M: 4/4
L: 1/8
K: D
D | "D"F2AF BFAF | F2AF "A"EFDE | "D"F2AF BFAF | "Em"GEFD "A7"EDB,D |\
    "D"F2AF BFAF | F2AF "A"EFDE | "D"FAAF BFAB | "A7"ABde "D"fdd |]
A | "D"dcdB ADFA | dcde "G"fgfe | "D"d2dB AFDF | "Em"GEFD "A7"EDB,A |\
    "D"dcdB ADFA | dcde "G"fgfe | "D"d2dB AFDF | "Em"GEFD "A7"EDB, |]

%%sep 2 1 500
%%sep 1 1 500

